X: 20428
T: John Griffin's
R: reel
M: 4/4
K: Aminor
eAAA BGGD|EGAB Aeg^f|eAAA BGGD|EGAc BABd|
eAAA BGGD|EGAB AGBg|eAAA BGGD|1 EGAc A2 Bd:|2 EGAc A2 cB||
A2 e^f g2 fe|dGGG Bdeg|A2 e^f g2 fe|dGBd ag^fg|
A2 e^f g2 fe|dGGG Bdeg|ag^fa e2 ef|gGBd cBAB:|

